findly-builder/apps/searchassist/src/assets/icons/accordian-expand.svg

<svg width="16" height="16" viewBox="0 0 16 16" fill="none" xmlns="http://www.w3.org/2000/svg">
<path fill-rule="evenodd" clip-rule="evenodd" d="M8 11.417C8.20312 11.417 8.37891 11.3428 8.52734 11.1943L13.7773 5.94434C13.9258 5.7959 14 5.62012 14 5.41699C14 5.21387 13.9258 5.03809 13.7773 4.88965C13.6289 4.74121 13.4531 4.66699 13.25 4.66699L2.75 4.66699C2.54688 4.66699 2.37109 4.74121 2.22266 4.88965C2.07422 5.03809 2 5.21387 2 5.41699C2 5.62012 2.07422 5.7959 2.22266 5.94434L7.47266 11.1943C7.62109 11.3428 7.79687 11.417 8 11.417Z" fill="#BDC1C6"/>
</svg>

<svg width="16" height="16" fill="none" xmlns="http://www.w3.org/2000/svg"><path fill-rule="evenodd" clip-rule="evenodd" d="M8 11.417a.72.72 0 0 0 .527-.223l5.25-5.25A.72.72 0 0 0 14 5.417a.72.72 0 0 0-.223-.527.72.72 0 0 0-.527-.223H2.75a.72.72 0 0 0-.527.223.72.72 0 0 0-.223.527.72.72 0 0 0 .223.527l5.25 5.25a.72.72 0 0 0 .527.223Z" fill="#BDC1C6"/></svg>
